X:1
T:One Before We Go
M:6/8
L:1/8
Q:80
C:Traditional Irish
S:Jig
K:HP
e | \
{g}ABA{g}cBA | \
{g}cde{A}efg | \
{g}G{d}G{e}G{g}BAG |
{g}dBG{g}BAG | \
{g}ABA{g}cBA | \
{g}cde{g}fga |
{g}ede{a}gdB | \
{g}AcB{GAG}A2 :: \
e |
{g}ABeaec | \
{g}eceaec | \
{g}Bdg{f}gag |
{g}dBGaec | \
{g}edc{g}eaf | \
{g}edc{g}eaf |
{g}ede{a}gdB | \
{g}AcB{GAG}A2 :|
